images/3233494.svg

<?xml version="1.0" encoding="UTF-8"?>
<svg xmlns="http://www.w3.org/2000/svg" xmlns:xlink="http://www.w3.org/1999/xlink" width="300pt" height="300pt" viewBox="0 0 300 300" version="1.1">
<defs>
<g>
<symbol overflow="visible" id="glyph0-0">
<path style="stroke:none;" d="M 0.546875 1.9375 L 0.546875 -7.75 L 6.046875 -7.75 L 6.046875 1.9375 Z M 1.171875 1.328125 L 5.4375 1.328125 L 5.4375 -7.140625 L 1.171875 -7.140625 Z M 1.171875 1.328125 "/>
</symbol>
<symbol overflow="visible" id="glyph0-1">
<path style="stroke:none;" d="M 4.328125 -7.28125 C 3.546875 -7.28125 2.921875 -6.984375 2.453125 -6.390625 C 1.992188 -5.804688 1.765625 -5.007812 1.765625 -4 C 1.765625 -2.988281 1.992188 -2.1875 2.453125 -1.59375 C 2.921875 -1.007812 3.546875 -0.71875 4.328125 -0.71875 C 5.117188 -0.71875 5.742188 -1.007812 6.203125 -1.59375 C 6.660156 -2.1875 6.890625 -2.988281 6.890625 -4 C 6.890625 -5.007812 6.660156 -5.804688 6.203125 -6.390625 C 5.742188 -6.984375 5.117188 -7.28125 4.328125 -7.28125 Z M 4.328125 -8.171875 C 5.453125 -8.171875 6.351562 -7.789062 7.03125 -7.03125 C 7.707031 -6.28125 8.046875 -5.269531 8.046875 -4 C 8.046875 -2.738281 7.707031 -1.726562 7.03125 -0.96875 C 6.351562 -0.21875 5.453125 0.15625 4.328125 0.15625 C 3.203125 0.15625 2.300781 -0.21875 1.625 -0.96875 C 0.957031 -1.71875 0.625 -2.726562 0.625 -4 C 0.625 -5.269531 0.957031 -6.28125 1.625 -7.03125 C 2.300781 -7.789062 3.203125 -8.171875 4.328125 -8.171875 Z M 4.328125 -8.171875 "/>
</symbol>
<symbol overflow="visible" id="glyph0-2">
<path style="stroke:none;" d="M 1.078125 -8.015625 L 2.546875 -8.015625 L 6.09375 -1.3125 L 6.09375 -8.015625 L 7.15625 -8.015625 L 7.15625 0 L 5.6875 0 L 2.125 -6.703125 L 2.125 0 L 1.078125 0 Z M 1.078125 -8.015625 "/>
</symbol>
<symbol overflow="visible" id="glyph0-3">
<path style="stroke:none;" d="M 5.890625 -7.75 L 5.890625 -6.703125 C 5.472656 -6.898438 5.082031 -7.046875 4.71875 -7.140625 C 4.351562 -7.234375 4 -7.28125 3.65625 -7.28125 C 3.070312 -7.28125 2.617188 -7.164062 2.296875 -6.9375 C 1.972656 -6.707031 1.8125 -6.382812 1.8125 -5.96875 C 1.8125 -5.613281 1.914062 -5.34375 2.125 -5.15625 C 2.34375 -4.976562 2.75 -4.832031 3.34375 -4.71875 L 4 -4.59375 C 4.8125 -4.4375 5.410156 -4.160156 5.796875 -3.765625 C 6.179688 -3.378906 6.375 -2.863281 6.375 -2.21875 C 6.375 -1.4375 6.113281 -0.84375 5.59375 -0.4375 C 5.070312 -0.0390625 4.304688 0.15625 3.296875 0.15625 C 2.921875 0.15625 2.515625 0.109375 2.078125 0.015625 C 1.648438 -0.0664062 1.207031 -0.191406 0.75 -0.359375 L 0.75 -1.46875 C 1.195312 -1.21875 1.628906 -1.03125 2.046875 -0.90625 C 2.472656 -0.78125 2.890625 -0.71875 3.296875 -0.71875 C 3.921875 -0.71875 4.398438 -0.835938 4.734375 -1.078125 C 5.066406 -1.328125 5.234375 -1.675781 5.234375 -2.125 C 5.234375 -2.519531 5.113281 -2.828125 4.875 -3.046875 C 4.632812 -3.273438 4.238281 -3.445312 3.6875 -3.5625 L 3.03125 -3.6875 C 2.21875 -3.84375 1.628906 -4.09375 1.265625 -4.4375 C 0.898438 -4.78125 0.71875 -5.257812 0.71875 -5.875 C 0.71875 -6.582031 0.96875 -7.140625 1.46875 -7.546875 C 1.96875 -7.960938 2.660156 -8.171875 3.546875 -8.171875 C 3.921875 -8.171875 4.300781 -8.132812 4.6875 -8.0625 C 5.082031 -7.988281 5.484375 -7.882812 5.890625 -7.75 Z M 5.890625 -7.75 "/>
</symbol>
</g>
</defs>
<g id="surface50145">
<rect x="0" y="0" width="300" height="300" style="fill:rgb(100%,100%,100%);fill-opacity:1;stroke:none;"/>
<path style="fill:none;stroke-width:1.2;stroke-linecap:butt;stroke-linejoin:miter;stroke:rgb(0%,0%,0%);stroke-opacity:1;stroke-miterlimit:10;" d="M 202.179688 232.113281 L 201.367188 218.660156 "/>
<path style="fill:none;stroke-width:1.2;stroke-linecap:butt;stroke-linejoin:miter;stroke:rgb(100%,0%,0%);stroke-opacity:1;stroke-miterlimit:10;" d="M 201.367188 218.660156 L 200.554688 205.210938 "/>
<path style="fill:none;stroke-width:1.2;stroke-linecap:butt;stroke-linejoin:miter;stroke:rgb(100%,0%,0%);stroke-opacity:1;stroke-miterlimit:10;" d="M 200.554688 205.210938 L 188.5 199.191406 "/>
<path style="fill:none;stroke-width:1.2;stroke-linecap:butt;stroke-linejoin:miter;stroke:rgb(0%,0%,0%);stroke-opacity:1;stroke-miterlimit:10;" d="M 188.5 199.191406 L 176.441406 193.171875 "/>
<path style=" stroke:none;fill-rule:nonzero;fill:rgb(100%,100%,100%);fill-opacity:1;" d="M 196.554688 198.710938 L 205.554688 198.710938 L 205.554688 211.710938 L 196.554688 211.710938 Z M 196.554688 198.710938 "/>
<g style="fill:rgb(100%,0%,0%);fill-opacity:1;">
  <use xlink:href="#glyph0-1" x="196.554688" y="208.612305"/>
</g>
<path style="fill:none;stroke-width:1.2;stroke-linecap:butt;stroke-linejoin:miter;stroke:rgb(0%,0%,0%);stroke-opacity:1;stroke-miterlimit:10;" d="M 176.441406 193.171875 L 165.203125 200.601562 "/>
<path style="fill:none;stroke-width:1.2;stroke-linecap:butt;stroke-linejoin:miter;stroke:rgb(0%,0%,100%);stroke-opacity:1;stroke-miterlimit:10;" d="M 165.203125 200.601562 L 153.960938 208.03125 "/>
<path style="fill:none;stroke-width:1.2;stroke-linecap:butt;stroke-linejoin:miter;stroke:rgb(0%,0%,0%);stroke-opacity:1;stroke-miterlimit:10;" d="M 170.699219 189.367188 L 161.703125 195.308594 "/>
<path style="fill:none;stroke-width:1.2;stroke-linecap:butt;stroke-linejoin:miter;stroke:rgb(0%,0%,100%);stroke-opacity:1;stroke-miterlimit:10;" d="M 161.703125 195.308594 L 152.710938 201.253906 "/>
<path style="fill:none;stroke-width:1.2;stroke-linecap:butt;stroke-linejoin:miter;stroke:rgb(0%,0%,100%);stroke-opacity:1;stroke-miterlimit:10;" d="M 174.816406 166.269531 L 175.628906 179.71875 "/>
<path style="fill:none;stroke-width:1.2;stroke-linecap:butt;stroke-linejoin:miter;stroke:rgb(0%,0%,0%);stroke-opacity:1;stroke-miterlimit:10;" d="M 175.628906 179.71875 L 176.441406 193.171875 "/>
<path style="fill:none;stroke-width:1.2;stroke-linecap:butt;stroke-linejoin:miter;stroke:rgb(0%,0%,100%);stroke-opacity:1;stroke-miterlimit:10;" d="M 153.960938 208.03125 L 141.902344 202.007812 "/>
<path style="fill:none;stroke-width:1.2;stroke-linecap:butt;stroke-linejoin:miter;stroke:rgb(0%,0%,0%);stroke-opacity:1;stroke-miterlimit:10;" d="M 141.902344 202.007812 L 129.847656 195.988281 "/>
<path style=" stroke:none;fill-rule:nonzero;fill:rgb(100%,100%,100%);fill-opacity:1;" d="M 149.960938 201.53125 L 157.960938 201.53125 L 157.960938 214.53125 L 149.960938 214.53125 Z M 149.960938 201.53125 "/>
<g style="fill:rgb(0%,0%,100%);fill-opacity:1;">
  <use xlink:href="#glyph0-2" x="149.960938" y="211.432617"/>
</g>
<path style="fill:none;stroke-width:1.2;stroke-linecap:butt;stroke-linejoin:miter;stroke:rgb(0%,0%,0%);stroke-opacity:1;stroke-miterlimit:10;" d="M 129.847656 195.988281 L 128.222656 169.085938 "/>
<path style="fill:none;stroke-width:1.2;stroke-linecap:butt;stroke-linejoin:miter;stroke:rgb(0%,0%,0%);stroke-opacity:1;stroke-miterlimit:10;" d="M 136.015625 192.914062 L 134.714844 171.394531 "/>
<path style="fill:none;stroke-width:1.2;stroke-linecap:butt;stroke-linejoin:miter;stroke:rgb(0%,0%,0%);stroke-opacity:1;stroke-miterlimit:10;" d="M 128.222656 169.085938 L 150.707031 154.226562 "/>
<path style="fill:none;stroke-width:1.2;stroke-linecap:butt;stroke-linejoin:miter;stroke:rgb(0%,0%,100%);stroke-opacity:1;stroke-miterlimit:10;" d="M 104.109375 157.046875 L 116.167969 163.066406 "/>
<path style="fill:none;stroke-width:1.2;stroke-linecap:butt;stroke-linejoin:miter;stroke:rgb(0%,0%,0%);stroke-opacity:1;stroke-miterlimit:10;" d="M 116.167969 163.066406 L 128.222656 169.085938 "/>
<path style="fill:none;stroke-width:1.2;stroke-linecap:butt;stroke-linejoin:miter;stroke:rgb(0%,0%,0%);stroke-opacity:1;stroke-miterlimit:10;" d="M 150.707031 154.226562 L 162.761719 160.25 "/>
<path style="fill:none;stroke-width:1.2;stroke-linecap:butt;stroke-linejoin:miter;stroke:rgb(0%,0%,100%);stroke-opacity:1;stroke-miterlimit:10;" d="M 162.761719 160.25 L 174.816406 166.269531 "/>
<path style="fill:none;stroke-width:1.2;stroke-linecap:butt;stroke-linejoin:miter;stroke:rgb(0%,0%,0%);stroke-opacity:1;stroke-miterlimit:10;" d="M 150.28125 161.105469 L 159.925781 165.921875 "/>
<path style="fill:none;stroke-width:1.2;stroke-linecap:butt;stroke-linejoin:miter;stroke:rgb(0%,0%,100%);stroke-opacity:1;stroke-miterlimit:10;" d="M 159.925781 165.921875 L 169.570312 170.738281 "/>
<path style="fill:none;stroke-width:1.2;stroke-linecap:butt;stroke-linejoin:miter;stroke:rgb(0%,0%,0%);stroke-opacity:1;stroke-miterlimit:10;" d="M 150.707031 154.226562 L 149.890625 140.777344 "/>
<path style="fill:none;stroke-width:1.2;stroke-linecap:butt;stroke-linejoin:miter;stroke:rgb(0%,0%,100%);stroke-opacity:1;stroke-miterlimit:10;" d="M 149.890625 140.777344 L 149.078125 127.328125 "/>
<path style=" stroke:none;fill-rule:nonzero;fill:rgb(100%,100%,100%);fill-opacity:1;" d="M 170.816406 159.769531 L 178.816406 159.769531 L 178.816406 172.769531 L 170.816406 172.769531 Z M 170.816406 159.769531 "/>
<g style="fill:rgb(0%,0%,100%);fill-opacity:1;">
  <use xlink:href="#glyph0-2" x="170.816406" y="169.670898"/>
</g>
<path style="fill:none;stroke-width:1.2;stroke-linecap:butt;stroke-linejoin:miter;stroke:rgb(0%,0%,100%);stroke-opacity:1;stroke-miterlimit:10;" d="M 149.078125 127.328125 L 137.023438 121.304688 "/>
<path style="fill:none;stroke-width:1.2;stroke-linecap:butt;stroke-linejoin:miter;stroke:rgb(0%,0%,0%);stroke-opacity:1;stroke-miterlimit:10;" d="M 137.023438 121.304688 L 124.96875 115.285156 "/>
<path style="fill:none;stroke-width:1.2;stroke-linecap:butt;stroke-linejoin:miter;stroke:rgb(0%,0%,100%);stroke-opacity:1;stroke-miterlimit:10;" d="M 149.078125 127.328125 L 160.320312 119.894531 "/>
<path style="fill:none;stroke-width:1.2;stroke-linecap:butt;stroke-linejoin:miter;stroke:rgb(0%,0%,0%);stroke-opacity:1;stroke-miterlimit:10;" d="M 160.320312 119.894531 L 171.5625 112.464844 "/>
<path style=" stroke:none;fill-rule:nonzero;fill:rgb(100%,100%,100%);fill-opacity:1;" d="M 145.078125 120.828125 L 153.078125 120.828125 L 153.078125 133.828125 L 145.078125 133.828125 Z M 145.078125 120.828125 "/>
<g style="fill:rgb(0%,0%,100%);fill-opacity:1;">
  <use xlink:href="#glyph0-2" x="145.078125" y="130.729492"/>
</g>
<path style="fill:none;stroke-width:1.2;stroke-linecap:butt;stroke-linejoin:miter;stroke:rgb(0%,0%,0%);stroke-opacity:1;stroke-miterlimit:10;" d="M 128.132812 115.09375 L 127.320312 101.644531 "/>
<path style="fill:none;stroke-width:1.2;stroke-linecap:butt;stroke-linejoin:miter;stroke:rgb(100%,0%,0%);stroke-opacity:1;stroke-miterlimit:10;" d="M 127.320312 101.644531 L 126.503906 88.191406 "/>
<path style="fill:none;stroke-width:1.2;stroke-linecap:butt;stroke-linejoin:miter;stroke:rgb(0%,0%,0%);stroke-opacity:1;stroke-miterlimit:10;" d="M 121.800781 115.476562 L 120.988281 102.027344 "/>
<path style="fill:none;stroke-width:1.2;stroke-linecap:butt;stroke-linejoin:miter;stroke:rgb(100%,0%,0%);stroke-opacity:1;stroke-miterlimit:10;" d="M 120.988281 102.027344 L 120.175781 88.574219 "/>
<path style="fill:none;stroke-width:1.2;stroke-linecap:butt;stroke-linejoin:miter;stroke:rgb(0%,0%,0%);stroke-opacity:1;stroke-miterlimit:10;" d="M 124.96875 115.285156 L 102.484375 130.144531 "/>
<path style=" stroke:none;fill-rule:nonzero;fill:rgb(100%,100%,100%);fill-opacity:1;" d="M 119.339844 81.882812 L 128.339844 81.882812 L 128.339844 94.882812 L 119.339844 94.882812 Z M 119.339844 81.882812 "/>
<g style="fill:rgb(100%,0%,0%);fill-opacity:1;">
  <use xlink:href="#glyph0-1" x="119.339844" y="91.78418"/>
</g>
<path style="fill:none;stroke-width:1.2;stroke-linecap:butt;stroke-linejoin:miter;stroke:rgb(0%,0%,0%);stroke-opacity:1;stroke-miterlimit:10;" d="M 102.484375 130.144531 L 103.296875 143.59375 "/>
<path style="fill:none;stroke-width:1.2;stroke-linecap:butt;stroke-linejoin:miter;stroke:rgb(0%,0%,100%);stroke-opacity:1;stroke-miterlimit:10;" d="M 103.296875 143.59375 L 104.109375 157.046875 "/>
<path style="fill:none;stroke-width:1.2;stroke-linecap:butt;stroke-linejoin:miter;stroke:rgb(0%,0%,0%);stroke-opacity:1;stroke-miterlimit:10;" d="M 108.976562 132.453125 L 109.628906 143.210938 "/>
<path style="fill:none;stroke-width:1.2;stroke-linecap:butt;stroke-linejoin:miter;stroke:rgb(0%,0%,100%);stroke-opacity:1;stroke-miterlimit:10;" d="M 109.628906 143.210938 L 110.277344 153.972656 "/>
<path style="fill:none;stroke-width:1.2;stroke-linecap:butt;stroke-linejoin:miter;stroke:rgb(0%,0%,0%);stroke-opacity:1;stroke-miterlimit:10;" d="M 102.484375 130.144531 L 78.375 118.101562 "/>
<path style=" stroke:none;fill-rule:nonzero;fill:rgb(100%,100%,100%);fill-opacity:1;" d="M 100.109375 150.546875 L 108.109375 150.546875 L 108.109375 163.546875 L 100.109375 163.546875 Z M 100.109375 150.546875 "/>
<g style="fill:rgb(0%,0%,100%);fill-opacity:1;">
  <use xlink:href="#glyph0-2" x="100.109375" y="160.448242"/>
</g>
<path style="fill:none;stroke-width:1.2;stroke-linecap:butt;stroke-linejoin:miter;stroke:rgb(0%,0%,0%);stroke-opacity:1;stroke-miterlimit:10;" d="M 78.375 118.101562 L 54.460938 130.53125 "/>
<path style="fill:none;stroke-width:1.2;stroke-linecap:butt;stroke-linejoin:miter;stroke:rgb(0%,0%,0%);stroke-opacity:1;stroke-miterlimit:10;" d="M 73.058594 113.71875 L 53.925781 123.660156 "/>
<path style="fill:none;stroke-width:1.2;stroke-linecap:butt;stroke-linejoin:miter;stroke:rgb(80%,80%,0%);stroke-opacity:1;stroke-miterlimit:10;" d="M 73.941406 91.519531 L 76.15625 104.8125 "/>
<path style="fill:none;stroke-width:1.2;stroke-linecap:butt;stroke-linejoin:miter;stroke:rgb(0%,0%,0%);stroke-opacity:1;stroke-miterlimit:10;" d="M 76.15625 104.8125 L 78.375 118.101562 "/>
<path style="fill:none;stroke-width:1.2;stroke-linecap:butt;stroke-linejoin:miter;stroke:rgb(0%,0%,0%);stroke-opacity:1;stroke-miterlimit:10;" d="M 54.460938 130.53125 L 35.25 111.628906 "/>
<path style="fill:none;stroke-width:1.2;stroke-linecap:butt;stroke-linejoin:miter;stroke:rgb(0%,0%,0%);stroke-opacity:1;stroke-miterlimit:10;" d="M 35.25 111.628906 L 47.292969 87.519531 "/>
<path style="fill:none;stroke-width:1.2;stroke-linecap:butt;stroke-linejoin:miter;stroke:rgb(0%,0%,0%);stroke-opacity:1;stroke-miterlimit:10;" d="M 42.128906 112.050781 L 51.761719 92.761719 "/>
<path style="fill:none;stroke-width:1.2;stroke-linecap:butt;stroke-linejoin:miter;stroke:rgb(0%,0%,0%);stroke-opacity:1;stroke-miterlimit:10;" d="M 47.292969 87.519531 L 60.617188 89.519531 "/>
<path style="fill:none;stroke-width:1.2;stroke-linecap:butt;stroke-linejoin:miter;stroke:rgb(80%,80%,0%);stroke-opacity:1;stroke-miterlimit:10;" d="M 60.617188 89.519531 L 73.941406 91.519531 "/>
<path style=" stroke:none;fill-rule:nonzero;fill:rgb(100%,100%,100%);fill-opacity:1;" d="M 70.941406 85.019531 L 77.941406 85.019531 L 77.941406 98.019531 L 70.941406 98.019531 Z M 70.941406 85.019531 "/>
<g style="fill:rgb(80%,80%,0%);fill-opacity:1;">
  <use xlink:href="#glyph0-3" x="70.941406" y="94.920898"/>
</g>
<path style="fill:none;stroke-width:1.2;stroke-linecap:butt;stroke-linejoin:miter;stroke:rgb(0%,0%,0%);stroke-opacity:1;stroke-miterlimit:10;" d="M 171.5625 112.464844 L 195.671875 124.507812 "/>
<path style="fill:none;stroke-width:1.2;stroke-linecap:butt;stroke-linejoin:miter;stroke:rgb(0%,0%,0%);stroke-opacity:1;stroke-miterlimit:10;" d="M 195.671875 124.507812 L 218.15625 109.648438 "/>
<path style="fill:none;stroke-width:1.2;stroke-linecap:butt;stroke-linejoin:miter;stroke:rgb(0%,0%,0%);stroke-opacity:1;stroke-miterlimit:10;" d="M 218.15625 109.648438 L 242.265625 121.691406 "/>
<path style="fill:none;stroke-width:1.2;stroke-linecap:butt;stroke-linejoin:miter;stroke:rgb(0%,0%,0%);stroke-opacity:1;stroke-miterlimit:10;" d="M 223.398438 105.179688 L 242.6875 114.8125 "/>
<path style="fill:none;stroke-width:1.2;stroke-linecap:butt;stroke-linejoin:miter;stroke:rgb(0%,0%,0%);stroke-opacity:1;stroke-miterlimit:10;" d="M 216.527344 82.746094 L 218.15625 109.648438 "/>
<path style="fill:none;stroke-width:1.2;stroke-linecap:butt;stroke-linejoin:miter;stroke:rgb(0%,0%,0%);stroke-opacity:1;stroke-miterlimit:10;" d="M 242.265625 121.691406 L 264.75 106.828125 "/>
<path style="fill:none;stroke-width:1.2;stroke-linecap:butt;stroke-linejoin:miter;stroke:rgb(0%,0%,0%);stroke-opacity:1;stroke-miterlimit:10;" d="M 264.75 106.828125 L 263.121094 79.929688 "/>
<path style="fill:none;stroke-width:1.2;stroke-linecap:butt;stroke-linejoin:miter;stroke:rgb(0%,0%,0%);stroke-opacity:1;stroke-miterlimit:10;" d="M 258.257812 104.523438 L 256.957031 83 "/>
<path style="fill:none;stroke-width:1.2;stroke-linecap:butt;stroke-linejoin:miter;stroke:rgb(0%,0%,0%);stroke-opacity:1;stroke-miterlimit:10;" d="M 263.121094 79.929688 L 239.011719 67.886719 "/>
<path style="fill:none;stroke-width:1.2;stroke-linecap:butt;stroke-linejoin:miter;stroke:rgb(0%,0%,0%);stroke-opacity:1;stroke-miterlimit:10;" d="M 239.011719 67.886719 L 216.527344 82.746094 "/>
<path style="fill:none;stroke-width:1.2;stroke-linecap:butt;stroke-linejoin:miter;stroke:rgb(0%,0%,0%);stroke-opacity:1;stroke-miterlimit:10;" d="M 240.261719 74.664062 L 222.273438 86.550781 "/>
</g>
</svg>

<svg xmlns="http://www.w3.org/2000/svg" xmlns:xlink="http://www.w3.org/1999/xlink" width="300pt" height="300pt" viewBox="0 0 300 300"><defs><symbol overflow="visible"><path d="M.547 1.938V-7.75h5.5v9.688zm.625-.61h4.266v-8.47H1.171zm0 0"/></symbol><symbol overflow="visible" id="a"><path d="M4.328-7.28c-.78 0-1.406.296-1.875.89-.46.585-.687 1.382-.687 2.39 0 1.012.226 1.813.687 2.406.47.586 1.094.875 1.875.875.79 0 1.414-.288 1.875-.874.457-.593.688-1.394.688-2.406 0-1.008-.23-1.805-.687-2.39-.46-.594-1.086-.89-1.875-.89zm0-.892c1.125 0 2.024.383 2.703 1.14C7.708-6.28 8.048-5.27 8.048-4c0 1.262-.34 2.273-1.016 3.03C6.353-.22 5.454.157 4.33.157S2.3-.22 1.625-.97c-.668-.75-1-1.757-1-3.03 0-1.27.332-2.28 1-3.03.676-.76 1.578-1.142 2.703-1.142zm0 0"/></symbol><symbol overflow="visible" id="b"><path d="M1.078-8.016h1.47l3.546 6.704v-6.704h1.062V0H5.688L2.124-6.703V0H1.078zm0 0"/></symbol><symbol overflow="visible" id="c"><path d="M5.89-7.75v1.047c-.417-.195-.808-.344-1.17-.438-.368-.094-.72-.14-1.064-.14-.586 0-1.04.116-1.36.343-.323.23-.483.554-.483.968 0 .357.1.626.312.814.22.18.625.324 1.22.437L4-4.593c.813.157 1.41.434 1.797.828.383.387.578.903.578 1.547 0 .783-.262 1.376-.78 1.783-.525.398-1.29.593-2.298.593-.375 0-.78-.047-1.22-.14C1.648-.066 1.208-.19.75-.36v-1.11c.445.25.88.44 1.297.564.426.125.844.187 1.25.187.625 0 1.1-.116 1.437-.358.332-.25.5-.598.5-1.047 0-.395-.12-.703-.36-.922-.24-.226-.636-.398-1.186-.515l-.657-.126c-.81-.156-1.4-.406-1.764-.75C.898-4.78.72-5.258.72-5.875c0-.707.25-1.266.75-1.672.5-.414 1.19-.625 2.077-.625.375 0 .754.04 1.14.11.395.074.797.18 1.204.312zm0 0"/></symbol></defs><g><path fill="#fff" d="M0 0h300v300H0z"/><path d="M202.18 232.113l-.813-13.453" stroke-width="1.2" stroke="#000" stroke-miterlimit="10" fill="none"/><path d="M201.367 218.66l-.812-13.45M200.555 205.21l-12.055-6.02" stroke-width="1.2" stroke="#f00" stroke-miterlimit="10" fill="none"/><path d="M188.5 199.19l-12.06-6.018" stroke-width="1.2" stroke="#000" stroke-miterlimit="10" fill="none"/><path d="M196.555 198.71h9v13h-9zm0 0" fill="#fff"/><use xlink:href="#a" x="196.555" y="208.612" fill="#f00"/><path d="M176.44 193.172l-11.237 7.43" stroke-width="1.2" stroke="#000" stroke-miterlimit="10" fill="none"/><path d="M165.203 200.602l-11.242 7.43" stroke-width="1.2" stroke="#00f" stroke-miterlimit="10" fill="none"/><path d="M170.7 189.367l-8.997 5.942" stroke-width="1.2" stroke="#000" stroke-miterlimit="10" fill="none"/><path d="M161.703 195.31l-8.992 5.944M174.816 166.27l.813 13.45" stroke-width="1.2" stroke="#00f" stroke-miterlimit="10" fill="none"/><path d="M175.63 179.72l.81 13.452" stroke-width="1.2" stroke="#000" stroke-miterlimit="10" fill="none"/><path d="M153.96 208.03l-12.058-6.022" stroke-width="1.2" stroke="#00f" stroke-miterlimit="10" fill="none"/><path d="M141.902 202.008l-12.054-6.02" stroke-width="1.2" stroke="#000" stroke-miterlimit="10" fill="none"/><path d="M149.96 201.53h8v13h-8zm0 0" fill="#fff"/><use xlink:href="#b" x="149.961" y="211.433" fill="#00f"/><path d="M129.848 195.988l-1.625-26.902M136.016 192.914l-1.3-21.52M128.223 169.086l22.484-14.86" stroke-width="1.2" stroke="#000" stroke-miterlimit="10" fill="none"/><path d="M104.11 157.047l12.058 6.02" stroke-width="1.2" stroke="#00f" stroke-miterlimit="10" fill="none"/><path d="M116.168 163.066l12.055 6.02M150.707 154.227l12.055 6.023" stroke-width="1.2" stroke="#000" stroke-miterlimit="10" fill="none"/><path d="M162.762 160.25l12.054 6.02" stroke-width="1.2" stroke="#00f" stroke-miterlimit="10" fill="none"/><path d="M150.28 161.105l9.646 4.817" stroke-width="1.2" stroke="#000" stroke-miterlimit="10" fill="none"/><path d="M159.926 165.922l9.644 4.816" stroke-width="1.2" stroke="#00f" stroke-miterlimit="10" fill="none"/><path d="M150.707 154.227l-.816-13.45" stroke-width="1.2" stroke="#000" stroke-miterlimit="10" fill="none"/><path d="M149.89 140.777l-.812-13.45" stroke-width="1.2" stroke="#00f" stroke-miterlimit="10" fill="none"/><path d="M170.816 159.77h8v13h-8zm0 0" fill="#fff"/><use xlink:href="#b" x="170.816" y="169.671" fill="#00f"/><path d="M149.078 127.328l-12.055-6.023" stroke-width="1.2" stroke="#00f" stroke-miterlimit="10" fill="none"/><path d="M137.023 121.305l-12.054-6.02" stroke-width="1.2" stroke="#000" stroke-miterlimit="10" fill="none"/><path d="M149.078 127.328l11.242-7.433" stroke-width="1.2" stroke="#00f" stroke-miterlimit="10" fill="none"/><path d="M160.32 119.895l11.243-7.43" stroke-width="1.2" stroke="#000" stroke-miterlimit="10" fill="none"/><path d="M145.078 120.828h8v13h-8zm0 0" fill="#fff"/><use xlink:href="#b" x="145.078" y="130.729" fill="#00f"/><path d="M128.133 115.094l-.813-13.45" stroke-width="1.2" stroke="#000" stroke-miterlimit="10" fill="none"/><path d="M127.32 101.645l-.816-13.454" stroke-width="1.2" stroke="#f00" stroke-miterlimit="10" fill="none"/><path d="M121.8 115.477l-.812-13.45" stroke-width="1.2" stroke="#000" stroke-miterlimit="10" fill="none"/><path d="M120.988 102.027l-.812-13.453" stroke-width="1.2" stroke="#f00" stroke-miterlimit="10" fill="none"/><path d="M124.97 115.285l-22.486 14.86" stroke-width="1.2" stroke="#000" stroke-miterlimit="10" fill="none"/><path d="M119.34 81.883h9v13h-9zm0 0" fill="#fff"/><use xlink:href="#a" x="119.34" y="91.784" fill="#f00"/><path d="M102.484 130.145l.813 13.45" stroke-width="1.2" stroke="#000" stroke-miterlimit="10" fill="none"/><path d="M103.297 143.594l.812 13.453" stroke-width="1.2" stroke="#00f" stroke-miterlimit="10" fill="none"/><path d="M108.977 132.453l.652 10.758" stroke-width="1.2" stroke="#000" stroke-miterlimit="10" fill="none"/><path d="M109.63 143.21l.647 10.763" stroke-width="1.2" stroke="#00f" stroke-miterlimit="10" fill="none"/><path d="M102.484 130.145l-24.11-12.043" stroke-width="1.2" stroke="#000" stroke-miterlimit="10" fill="none"/><path d="M100.11 150.547h8v13h-8zm0 0" fill="#fff"/><use xlink:href="#b" x="100.109" y="160.448" fill="#00f"/><path d="M78.375 118.102l-23.914 12.43M73.06 113.72l-19.134 9.94" stroke-width="1.2" stroke="#000" stroke-miterlimit="10" fill="none"/><path d="M73.94 91.52l2.216 13.293" stroke-width="1.2" stroke="#cc0" stroke-miterlimit="10" fill="none"/><path d="M76.156 104.813l2.22 13.29M54.46 130.53l-19.21-18.9M35.25 111.63l12.043-24.11M42.13 112.05l9.632-19.288M47.293 87.52l13.324 2" stroke-width="1.2" stroke="#000" stroke-miterlimit="10" fill="none"/><path d="M60.617 89.52l13.324 2" stroke-width="1.2" stroke="#cc0" stroke-miterlimit="10" fill="none"/><path d="M70.94 85.02h7v13h-7zm0 0" fill="#fff"/><use xlink:href="#c" x="70.941" y="94.921" fill="#cc0"/><path d="M171.563 112.465l24.11 12.043M195.672 124.508l22.484-14.86M218.156 109.648l24.11 12.043M223.398 105.18l19.29 9.632M216.527 82.746l1.63 26.902M242.266 121.69l22.484-14.862M264.75 106.828l-1.63-26.898M258.258 104.523L256.958 83M263.12 79.93l-24.108-12.043M239.012 67.887l-22.485 14.86M240.262 74.664l-17.99 11.887" stroke-width="1.2" stroke="#000" stroke-miterlimit="10" fill="none"/></g></svg>
